SVG_Azure_All/Cognitive Services Form Recogniser.svg

<?xml version="1.0" encoding="UTF-8" standalone="no"?>
<!-- Generated by Microsoft Visio, SVG Export Cognitive Services Form Recogniser.svg Page-1 -->

<svg
   xmlns:dc="http://purl.org/dc/elements/1.1/"
   xmlns:cc="http://creativecommons.org/ns#"
   xmlns:rdf="http://www.w3.org/1999/02/22-rdf-syntax-ns#"
   xmlns:svg="http://www.w3.org/2000/svg"
   xmlns="http://www.w3.org/2000/svg"
   xmlns:sodipodi="http://sodipodi.sourceforge.net/DTD/sodipodi-0.dtd"
   xmlns:inkscape="http://www.inkscape.org/namespaces/inkscape"
   width="0.74804729in"
   height="0.78738964in"
   viewBox="0 0 53.859159 56.692364"
   xml:space="preserve"
   class="st8"
   version="1.1"
   id="svg78"
   sodipodi:docname="Cognitive Services Form Recogniser.svg"
   style="font-size:12px;overflow:visible;color-interpolation-filters:sRGB;fill:none;fill-rule:evenodd;stroke-linecap:square;stroke-miterlimit:3"
   inkscape:version="0.92.5 (2060ec1f9f, 2020-04-08)"><metadata
   id="metadata82"><rdf:RDF><cc:Work
       rdf:about=""><dc:format>image/svg+xml</dc:format><dc:type
         rdf:resource="http://purl.org/dc/dcmitype/StillImage" /></cc:Work></rdf:RDF></metadata><sodipodi:namedview
   pagecolor="#ffffff"
   bordercolor="#666666"
   borderopacity="1"
   objecttolerance="10"
   gridtolerance="10"
   guidetolerance="10"
   inkscape:pageopacity="0"
   inkscape:pageshadow="2"
   inkscape:window-width="640"
   inkscape:window-height="480"
   id="namedview80"
   showgrid="false"
   inkscape:zoom="1.4193119"
   inkscape:cx="35.905139"
   inkscape:cy="37.786193"
   inkscape:window-x="0"
   inkscape:window-y="0"
   inkscape:window-maximized="0"
   inkscape:current-layer="svg78" />
	<style
   type="text/css"
   id="style2">
	<![CDATA[
		.st1 {fill:#83b9f9;stroke:none;stroke-linecap:butt;stroke-width:34}
		.st2 {fill:url(#grad0-8);stroke:none;stroke-linecap:butt;stroke-width:34}
		.st3 {fill:#0078d4;stroke:none;stroke-linecap:butt;stroke-width:34}
		.st4 {fill:#ffffff;stroke:none;stroke-linecap:butt;stroke-width:34}
		.st5 {fill:#ffffff;fill-opacity:0.8;stroke:none;stroke-linecap:butt;stroke-width:34}
		.st6 {fill:#ffffff;fill-opacity:0.6;stroke:none;stroke-linecap:butt;stroke-width:34}
		.st7 {fill:#50e6ff;stroke:none;stroke-linecap:butt;stroke-width:34}
		.st8 {fill:none;fill-rule:evenodd;font-size:12px;overflow:visible;stroke-linecap:square;stroke-miterlimit:3}
	]]>
	</style>

	<defs
   id="Patterns_And_Gradients">
		<linearGradient
   id="grad0-8"
   x1="-1.7420228e-08"
   y1="63.066979"
   x2="50.721844"
   y2="63.066979"
   gradientTransform="scale(0.9124274,1.0959776)"
   gradientUnits="userSpaceOnUse">
			<stop
   offset="0"
   stop-color="#0078d4"
   stop-opacity="1"
   id="stop4" />
			<stop
   offset="0.815"
   stop-color="#5ea0ef"
   stop-opacity="1"
   id="stop6" />
		</linearGradient>
	</defs>
	<g
   id="g76"
   transform="translate(-34.000611,-34.001937)">
		<title
   id="title10">Page-1</title>
		<g
   id="group6472-1"
   transform="translate(34,-34.0157)">
			<title
   id="title12">Cognitive Services Form Recogniser</title>
			<g
   id="group6473-2">
				<title
   id="title14">Sheet.6473</title>
				<g
   id="shape6474-3"
   transform="translate(0.330754,-1.51181)">
					<title
   id="title16">Sheet.6474</title>
					<path
   d="M 26.03,69.94 H 1.9 A 1.90745,1.87087 -180 0 0 0,71.81 v 51.03 a 1.90745,1.87087 -180 0 0 1.9,1.87 h 41.82 a 1.90745,1.87087 -180 0 0 1.9,-1.87 V 89.07 A 1.90745,1.87087 -180 0 0 43.72,87.2 H 29.84 A 1.90745,1.87087 0 0 1 27.93,85.33 V 71.81 a 1.90424,1.86772 -180 0 0 -1.9,-1.87 z"
   class="st1"
   id="path18"
   inkscape:connector-curvature="0"
   style="fill:#83b9f9;stroke:none;stroke-width:34;stroke-linecap:butt" />
				</g>
				<g
   id="shape6475-5"
   transform="translate(0,-1.10236)">
					<title
   id="title21">Sheet.6475</title>
					<path
   d="m 25.48,71.92 v 12.82 a 4.79753,4.70551 -180 0 0 4.79,4.7 h 13.16 v 32.47 H 2.84 V 71.92 Z m 0.92,-2.8 H 1.93 A 1.92672,1.88976 -180 0 0 0,71.01 v 51.81 a 1.92672,1.88976 -180 0 0 1.93,1.89 h 42.43 a 1.92672,1.88976 -180 0 0 1.92,-1.89 V 88.54 A 1.92672,1.88976 -180 0 0 44.36,86.65 H 30.27 A 1.92672,1.88976 0 0 1 28.34,84.76 V 71.01 a 1.92672,1.88976 -180 0 0 -1.92,-1.89 z"
   class="st2"
   id="path23"
   inkscape:connector-curvature="0"
   style="fill:url(#grad0-8);stroke:none;stroke-width:34;stroke-linecap:butt" />
				</g>
				<g
   id="shape6476-9"
   transform="translate(27.6709,-38.7937)">
					<title
   id="title26">Sheet.6476</title>
					<path
   d="M 17.88,124.71 0,107.23 v 14.24 a 3.28185,3.2189 -180 0 0 3.26,3.24 z"
   class="st3"
   id="path28"
   inkscape:connector-curvature="0"
   style="fill:#0078d4;stroke:none;stroke-width:34;stroke-linecap:butt" />
				</g>
				<g
   id="shape6477-11"
   transform="translate(6.6504,-26.1764)">
					<title
   id="title31">Sheet.6477</title>
					<path
   d="m 0,122.92 a 1.82079,1.78587 -180 0 0 1.82,1.79 h 27.55 a 1.82079,1.78587 -180 0 0 1.82,-1.79 v -0.71 a 1.82079,1.78587 -180 0 0 -1.82,-1.78 H 1.82 A 1.82079,1.78587 -180 0 0 0,122.21 Z"
   class="st4"
   id="path33"
   inkscape:connector-curvature="0"
   style="fill:#ffffff;stroke:none;stroke-width:34;stroke-linecap:butt" />
				</g>
				<g
   id="shape6478-13"
   transform="translate(6.6504,-17.5024)">
					<title
   id="title36">Sheet.6478</title>
					<path
   d="m 0,122.92 a 1.82079,1.78587 -180 0 0 1.82,1.79 h 27.55 a 1.82079,1.78587 -180 0 0 1.82,-1.79 v -0.71 a 1.82079,1.78587 -180 0 0 -1.82,-1.78 H 1.82 A 1.82079,1.78587 -180 0 0 0,122.21 Z"
   class="st5"
   id="path38"
   inkscape:connector-curvature="0"
   style="fill:#ffffff;fill-opacity:0.8;stroke:none;stroke-width:34;stroke-linecap:butt" />
				</g>
				<g
   id="shape6479-15"
   transform="translate(6.6504,-8.8252)">
					<title
   id="title41">Sheet.6479</title>
					<path
   d="m 0,122.92 a 1.82079,1.78587 -180 0 0 1.82,1.79 h 27.55 a 1.82079,1.78587 -180 0 0 1.82,-1.79 v -0.71 a 1.82079,1.78587 -180 0 0 -1.82,-1.78 H 1.82 A 1.82079,1.78587 -180 0 0 0,122.21 Z"
   class="st6"
   id="path43"
   inkscape:connector-curvature="0"
   style="fill:#ffffff;fill-opacity:0.6;stroke:none;stroke-width:34;stroke-linecap:butt" />
				</g>
				<g
   id="group6480-17"
   transform="translate(16.329)">
					<title
   id="title46">Sheet.6480</title>
					<g
   id="shape6481-18"
   transform="translate(1.13034,-0.670866)">
						<title
   id="title48">Sheet.6481</title>
						<path
   d="m 21.38,124.71 c -6.67,0 -12.15,-5.04 -15.04,-13.86 A 146.36,143.553 -180 0 0 0,97.4 c 4.24,0.05 19.06,0.2 21.89,0.2 6.79,0 12.04,7.95 12.04,14.81 a 12.5686,12.3276 0 0 1 -12.55,12.3 z"
   class="st7"
   id="path50"
   inkscape:connector-curvature="0"
   style="fill:#50e6ff;stroke:none;stroke-width:34;stroke-linecap:butt" />
					</g>
					<g
   id="shape6482-20">
						<title
   id="title53">Sheet.6482</title>
						<path
   d="m 2.25,97.42 c 5.28,0.05 18.16,0.18 20.77,0.18 6.4,0 11.36,7.59 11.36,14.12 a 11.8814,11.6535 0 0 1 -11.89,11.66 c -6.34,0 -11.59,-4.89 -14.39,-13.4 A 132.533,129.991 -180 0 0 2.25,97.42 Z M 0,96.05 c 0,0 5.58,10.6 6.81,14.33 2.82,8.58 8.39,14.33 15.7,14.33 A 13.2398,12.9858 -180 0 0 35.75,111.72 C 35.75,104.55 30.34,96.26 23.02,96.26 19.71,96.26 0,96.05 0,96.05 Z"
   class="st7"
   id="path55"
   inkscape:connector-curvature="0"
   style="fill:#50e6ff;stroke:none;stroke-width:34;stroke-linecap:butt" />
					</g>
				</g>
				<g
   id="shape6483-22"
   transform="translate(24.8515)">
					<title
   id="title59">Sheet.6483</title>
					<ellipse
   cx="14.5018"
   cy="110.485"
   rx="14.5018"
   ry="14.2236"
   class="st4"
   id="ellipse61"
   style="fill:#ffffff;stroke:none;stroke-width:34;stroke-linecap:butt" />
				</g>
				<g
   id="shape6484-24"
   transform="translate(26.3897,-4.16378)">
					<title
   id="title64">Sheet.6484</title>
					<path
   d="M 12.96,101.93 A 12.9668,12.7181 0 1 1 0,114.65 12.9797,12.7307 0 0 1 12.96,101.93 Z m 0,-1.51 a 14.505,14.2268 -180 1 0 14.51,14.23 14.5018,14.2236 -180 0 0 -14.51,-14.23 z"
   class="st7"
   id="path66"
   inkscape:connector-curvature="0"
   style="fill:#50e6ff;stroke:none;stroke-width:34;stroke-linecap:butt" />
				</g>
				<g
   id="shape6485-26"
   transform="translate(32.918,-8.0063)">
					<title
   id="title69">Sheet.6485</title>
					<path
   d="M 4.68,116.65 H 0 v -4.6 h 4.68 z m 8.19,-4.59 H 8.19 v 4.59 h 4.68 z m -8.19,8.06 H 0 v 4.59 h 4.68 z m 8.19,0 H 8.19 v 4.59 h 4.68 z"
   class="st7"
   id="path71"
   inkscape:connector-curvature="0"
   style="fill:#50e6ff;stroke:none;stroke-width:34;stroke-linecap:butt" />
				</g>
			</g>
		</g>
	</g>
</svg>

<?xml version="1.0" encoding="UTF-8" standalone="no"?>
<!DOCTYPE svg PUBLIC "-//W3C//DTD SVG 1.1//EN" "http://www.w3.org/Graphics/SVG/1.1/DTD/svg11.dtd">
<!-- Generated by Microsoft Visio, SVG Export Cognitive Services Form Recogniser.svg Page-1 -->
<svg xmlns="http://www.w3.org/2000/svg" xmlns:xlink="http://www.w3.org/1999/xlink" xmlns:ev="http://www.w3.org/2001/xml-events"
		width="1.69248in" height="1.73206in" viewBox="0 0 121.858 124.709" xml:space="preserve" color-interpolation-filters="sRGB"
		class="st8">
	<style type="text/css">
	<![CDATA[
		.st1 {fill:#83b9f9;stroke:none;stroke-linecap:butt;stroke-width:34}
		.st2 {fill:url(#grad0-8);stroke:none;stroke-linecap:butt;stroke-width:34}
		.st3 {fill:#0078d4;stroke:none;stroke-linecap:butt;stroke-width:34}
		.st4 {fill:#ffffff;stroke:none;stroke-linecap:butt;stroke-width:34}
		.st5 {fill:#ffffff;fill-opacity:0.8;stroke:none;stroke-linecap:butt;stroke-width:34}
		.st6 {fill:#ffffff;fill-opacity:0.6;stroke:none;stroke-linecap:butt;stroke-width:34}
		.st7 {fill:#50e6ff;stroke:none;stroke-linecap:butt;stroke-width:34}
		.st8 {fill:none;fill-rule:evenodd;font-size:12px;overflow:visible;stroke-linecap:square;stroke-miterlimit:3}
	]]>
	</style>

	<defs id="Patterns_And_Gradients">
		<linearGradient id="grad0-8" x1="0" y1="0" x2="1" y2="0" gradientTransform="rotate(-90 0.5 0.5)">
			<stop offset="0" stop-color="#0078d4" stop-opacity="1"/>
			<stop offset="0.815" stop-color="#5ea0ef" stop-opacity="1"/>
		</linearGradient>
	</defs>
	<g>
		<title>Page-1</title>
		<g id="group6304-1" transform="translate(34,-34.0157)">
			<title>Cognitive Services Form Recogniser</title>
			<g id="group6305-2">
				<title>Sheet.6305</title>
				<g id="shape6306-3" transform="translate(0.330754,-1.51181)">
					<title>Sheet.6306</title>
					<path d="M26.03 69.94 L1.9 69.94 A1.90745 1.87087 -180 0 0 0 71.81 L0 122.84 A1.90745 1.87087 -180 0 0 1.9 124.71
								 L43.72 124.71 A1.90745 1.87087 -180 0 0 45.62 122.84 L45.62 89.07 A1.90745 1.87087 -180 0 0 43.72
								 87.2 L29.84 87.2 A1.90745 1.87087 0 0 1 27.93 85.33 L27.93 71.81 A1.90424 1.86772 -180 0 0 26.03
								 69.94 Z" class="st1"/>
				</g>
				<g id="shape6307-5" transform="translate(0,-1.10236)">
					<title>Sheet.6307</title>
					<path d="M25.48 71.92 L25.48 84.74 A4.79753 4.70551 -180 0 0 30.27 89.44 L43.43 89.44 L43.43 121.91 L2.84 121.91
								 L2.84 71.92 L25.48 71.92 ZM26.4 69.12 L1.93 69.12 A1.92672 1.88976 -180 0 0 0 71.01 L0 122.82 A1.92672
								 1.88976 -180 0 0 1.93 124.71 L44.36 124.71 A1.92672 1.88976 -180 0 0 46.28 122.82 L46.28 88.54 A1.92672
								 1.88976 -180 0 0 44.36 86.65 L30.27 86.65 A1.92672 1.88976 0 0 1 28.34 84.76 L28.34 71.01 A1.92672
								 1.88976 -180 0 0 26.42 69.12 L26.4 69.12 Z" class="st2"/>
				</g>
				<g id="shape6308-9" transform="translate(27.6709,-38.7937)">
					<title>Sheet.6308</title>
					<path d="M17.88 124.71 L0 107.23 L0 121.47 A3.28185 3.2189 -180 0 0 3.26 124.71 L17.88 124.71 Z" class="st3"/>
				</g>
				<g id="shape6309-11" transform="translate(6.6504,-26.1764)">
					<title>Sheet.6309</title>
					<path d="M0 122.92 A1.82079 1.78587 -180 0 0 1.82 124.71 L29.37 124.71 A1.82079 1.78587 -180 0 0 31.19 122.92
								 L31.19 122.21 A1.82079 1.78587 -180 0 0 29.37 120.43 L1.82 120.43 A1.82079 1.78587 -180 0 0 0 122.21
								 L0 122.92 Z" class="st4"/>
				</g>
				<g id="shape6310-13" transform="translate(6.6504,-17.5024)">
					<title>Sheet.6310</title>
					<path d="M0 122.92 A1.82079 1.78587 -180 0 0 1.82 124.71 L29.37 124.71 A1.82079 1.78587 -180 0 0 31.19 122.92
								 L31.19 122.21 A1.82079 1.78587 -180 0 0 29.37 120.43 L1.82 120.43 A1.82079 1.78587 -180 0 0 0 122.21
								 L0 122.92 Z" class="st5"/>
				</g>
				<g id="shape6311-15" transform="translate(6.6504,-8.8252)">
					<title>Sheet.6311</title>
					<path d="M0 122.92 A1.82079 1.78587 -180 0 0 1.82 124.71 L29.37 124.71 A1.82079 1.78587 -180 0 0 31.19 122.92
								 L31.19 122.21 A1.82079 1.78587 -180 0 0 29.37 120.43 L1.82 120.43 A1.82079 1.78587 -180 0 0 0 122.21
								 L0 122.92 Z" class="st6"/>
				</g>
				<g id="group6312-17" transform="translate(16.329,1.42109E-14)">
					<title>Sheet.6312</title>
					<g id="shape6313-18" transform="translate(1.13034,-0.670866)">
						<title>Sheet.6313</title>
						<path d="M21.38 124.71 C14.71 124.71 9.23 119.67 6.34 110.85 A146.36 143.553 -180 0 0 0 97.4 C4.24 97.45
									 19.06 97.6 21.89 97.6 C28.68 97.6 33.93 105.55 33.93 112.41 A12.5686 12.3276 0 0 1 21.38 124.71
									 Z" class="st7"/>
					</g>
					<g id="shape6314-20">
						<title>Sheet.6314</title>
						<path d="M2.25 97.42 C7.53 97.47 20.41 97.6 23.02 97.6 C29.42 97.6 34.38 105.19 34.38 111.72 A11.8814 11.6535
									 0 0 1 22.49 123.38 C16.15 123.38 10.9 118.49 8.1 109.98 A132.533 129.991 -180 0 0 2.25 97.42
									 ZM0 96.05 C0 96.05 5.58 106.65 6.81 110.38 C9.63 118.96 15.2 124.71 22.51 124.71 A13.2398 12.9858
									 -180 0 0 35.75 111.72 C35.75 104.55 30.34 96.26 23.02 96.26 C19.71 96.26 0 96.05 0 96.05 Z"
								class="st7"/>
					</g>
				</g>
				<g id="shape6315-22" transform="translate(24.8515,1.42109E-14)">
					<title>Sheet.6315</title>
					<ellipse cx="14.5018" cy="110.485" rx="14.5018" ry="14.2236" class="st4"/>
				</g>
				<g id="shape6316-24" transform="translate(26.3897,-4.16378)">
					<title>Sheet.6316</title>
					<path d="M12.96 101.93 A12.9668 12.7181 0 1 1 0 114.65 A12.9797 12.7307 0 0 1 12.96 101.93 ZM12.96 100.42 A14.505
								 14.2268 -180 1 0 27.47 114.65 A14.5018 14.2236 -180 0 0 12.96 100.42 Z" class="st7"/>
				</g>
				<g id="shape6317-26" transform="translate(32.918,-8.0063)">
					<title>Sheet.6317</title>
					<path d="M4.68 116.65 L0 116.65 L0 112.05 L4.68 112.05 L4.68 116.65 ZM12.87 112.06 L8.19 112.06 L8.19 116.65
								 L12.87 116.65 L12.87 112.06 ZM4.68 120.12 L0 120.12 L0 124.71 L4.68 124.71 L4.68 120.12 ZM12.87
								 120.12 L8.19 120.12 L8.19 124.71 L12.87 124.71 L12.87 120.12 Z" class="st7"/>
				</g>
			</g>
		</g>
	</g>
</svg>
